X: 71
M:9/4
L:1/8
K:G
e2 | dcBABG d4 G2 Bc d2 e2 | =f2 gfed f2 c2 A2 c4 e2 |
dcBABG B4 G2 Bc d2 ef | efefge g2 d2 B2 d4 ef |
gfefge g2 d2 B2 d2 c2 B2 | c2 B2 A2 =f2 c2 A2 cBcdef |
g4 d2 e4 d2 gfefge | dcBcdB c2 A2 F2 G4 || e2 |
g2 BcdB d2 BcdB g2 BcdB | c2 ABcA =f2 c2 A2 cBcdef | g4 d2 e4 d2 gfefge | dcBcdBc2 A2 F2 G4 |]


